X:26
T:Miss Fancy Hornpipe . RH.026
R:Hornpipe
S:Rev.R.Harrison’s MS,c1815,Cumbria
N:Originally transcribed with L:1/8. PJH.
O:England
A:Temple Sowerby,Cumbria
Z:vmp.Simon Wilson. Review PJH, 2008.
M:2/4
L:1/16
Q:1/4=100
K:G
dc|B2G2 G2AB|c2c2 c2ec|A2A2 A2GA|B2G2 G2d2|\
g2g2 gabg|a2d2 d2g2|fgab c’agf|g2g2 g2:|!
|:ga|b2b2 c’bag|a2d2 d2^d2|e2e2 agfe|d2B2 B2d2|\
c2c2 ABcA|B2G2 G2g2|fgab c’agf|g2g2 g2:|

